video-check.svg

<svg fill="currentColor" viewBox="0 0 24 24"><path d="M17 10.5V7c0-.55-.45-1-1-1H4c-.55 0-1 .45-1 1v10c0 .55.45 1 1 1h12c.55 0 1-.45 1-1v-3.5l4 4v-11zM8.93 15 6 11.8l1.24-1.24 1.69 1.7 3.83-3.83L14 9.93z"/></svg>

<svg  viewBox="0 0 24 24" fill="currentColor"><path  d="M17 10.5V7C17 6.45 16.55 6 16 6H4C3.45 6 3 6.45 3 7V17C3 17.55 3.45 18 4 18H16C16.55 18 17 17.55 17 17V13.5L21 17.5V6.5L17 10.5M8.93 15L6 11.8L7.24 10.56L8.93 12.26L12.76 8.43L14 9.93L8.93 15Z"/></svg>
